X:1
T:Title
%%score { ( 1 4 ) | ( 2 3 ) }
L:1/8
M:3/4
K:F
V:1 treble nm="Grand Piano"
V:4 treble 
V:2 bass 
V:3 bass 
V:1
 z2 z2 z[Q:1/4=86] C | [A,C]>A [CA]3 B | [CA]>G [B,G]3 C | [B,C]>G [B,G]2 [CA]2 |[M:2/4] [A,F]4 | %5
[M:1/4] z C |[M:3/4] [A,C]>A [CA]3 B | [=B,A]>G [B,G]3 D | %8
 [F,=B,D]>[E,B,E][K:treble] [B,F]2 [B,D]2 |[M:5/8] [B,G]- [B,G]3 z |[M:1/8] [Ec] | %11
[M:3/4] c>A c3 d | c>A c2 F2 | B3 B AG |[M:2/4] c4 |[M:1/4] [Ec]2 |[M:3/4] c>A c3 A | %17
 G>F [Fd]2 [FB]2 | [Fc]3 [Ec] [EA][EG] |[M:5/8] F- F3 z |] %20
V:2
 z2 z2 z A, | z z/ C/ F,2 z D | z z/ B,/ z2 z B, | z z/ B,/ C,2 E,2 |[M:2/4] F,2 F,,2 | %5
[M:1/4] z A, |[M:3/4] z z/ C/ ^F,2 z D | z z/ =B,/ G,2 z B, | G,,>G,, [G,,D,]2 [G,,F,]2 | %9
[M:5/8] [C,E,]- [C,E,]3 z |[M:1/8] [C,B,] |[M:3/4] [F,A,F]>[F,CF] [F,A,F]3 [F,B,F] | %12
 [F,A,F]>[F,CF] [F,A,F]2 [F,A,]2 | [G,CE]3 [G,CE] [CE][B,CE] | %14
[M:2/4] [A,CF][K:bass][G,B,] [F,A,]2 |[M:1/4] [C,G,]2 |[M:3/4] [F,A,F]>[F,CF] [F,A,F]3 [F,C_E] | %17
 [F,B,_E]>[F,A,E] [B,,B,]2 [D,B,]2 | [C,A,]3 [C,A,] [C,C][C,B,] |[M:5/8] [F,A,]- [F,A,]3 z |] %20
V:3
 x6 | F,,2 z2 F,2 | C,2 C,,4 | C,,2 z2 z2 |[M:2/4] x4 |[M:1/4] x2 |[M:3/4] D,2 z2 D,2 | %7
 D,2 z2 G,,2 | x6 |[M:5/8] x5 |[M:1/8] x |[M:3/4] x6 | x6 | x6 |[M:2/4] x[K:bass] x3 |[M:1/4] x2 | %16
[M:3/4] x6 | x6 | x6 |[M:5/8] x5 |] %20
V:4
 x6 | x6 | x6 | x6 |[M:2/4] x4 |[M:1/4] x2 |[M:3/4] x6 | x6 | x2[K:treble] x4 |[M:5/8] x5 | %10
[M:1/8] x |[M:3/4] x6 | x6 | x6 |[M:2/4] z E F2 |[M:1/4] x2 |[M:3/4] x6 | x6 | x6 |[M:5/8] x5 |] %20

